X:244
M:C
L:1/8
K:D
d>AF>D F/G/A d2:|2 f>d c/d/e B>G F/G/A|G>EC>A, D2D||
g|:f>d f/g/a f<d d>f|g>ec>A =c/d/e g2|1 f>d f/g/a f<d d>g|f>da>f b>g a2:|2
f>d c/d/e B>G F/G/A|G>EC>A, D2D||

